packages/sources/icons/src/vitamix/delete-bin-line.svg

<svg width="16" height="16" viewBox="0 0 16 16" fill="none" xmlns="http://www.w3.org/2000/svg">
<path fill-rule="evenodd" clip-rule="evenodd" d="M11.3333 3.99999H14.6667V5.33333H13.3333V14C13.3333 14.3682 13.0349 14.6667 12.6667 14.6667H3.33333C2.96514 14.6667 2.66667 14.3682 2.66667 14V5.33333H1.33333V3.99999H4.66667V1.99999C4.66667 1.63181 4.96514 1.33333 5.33333 1.33333H10.6667C11.0349 1.33333 11.3333 1.63181 11.3333 1.99999V3.99999ZM12 5.33333H4V13.3333H12V5.33333ZM6 3.99999V2.66666H10V3.99999H6Z" fill="#001018"/>
</svg>

<svg width="16" height="16" fill="none" xmlns="http://www.w3.org/2000/svg"><path fill-rule="evenodd" clip-rule="evenodd" d="M11.333 4h3.334v1.333h-1.334V14a.667.667 0 0 1-.666.667H3.333A.667.667 0 0 1 2.667 14V5.333H1.333V4h3.334V2c0-.368.298-.667.666-.667h5.334c.368 0 .666.299.666.667v2zM12 5.333H4v8h8v-8zM6 4V2.667h4V4H6z" fill="#001018"/></svg>
